small/extra/apps/standard/googleplaystore.svg

<?xml version="1.0" encoding="UTF-8" standalone="no"?>
<!-- Created with Inkscape (http://www.inkscape.org/) -->

<svg
   xmlns:dc="http://purl.org/dc/elements/1.1/"
   xmlns:cc="http://creativecommons.org/ns#"
   xmlns:rdf="http://www.w3.org/1999/02/22-rdf-syntax-ns#"
   xmlns:svg="http://www.w3.org/2000/svg"
   xmlns="http://www.w3.org/2000/svg"
   xmlns:sodipodi="http://sodipodi.sourceforge.net/DTD/sodipodi-0.dtd"
   xmlns:inkscape="http://www.inkscape.org/namespaces/inkscape"
   version="1.1"
   width="100%"
   height="100%"
   viewBox="0 0 512 512"
   id="svg2"
   inkscape:version="0.91+devel r13804 custom"
   sodipodi:docname="googleplaystore.svg">
  <sodipodi:namedview
     pagecolor="#ffffff"
     bordercolor="#666666"
     borderopacity="1"
     objecttolerance="10"
     gridtolerance="10"
     guidetolerance="10"
     inkscape:pageopacity="0"
     inkscape:pageshadow="2"
     inkscape:window-width="1366"
     inkscape:window-height="709"
     id="namedview83"
     showgrid="false"
     inkscape:zoom="0.4609375"
     inkscape:cx="264.67797"
     inkscape:cy="181.15254"
     inkscape:window-x="-2"
     inkscape:window-y="-3"
     inkscape:window-maximized="1"
     inkscape:current-layer="svg2" />
  <metadata
     id="metadata10">
    <rdf:RDF>
      <cc:Work
         rdf:about="">
        <dc:format>image/svg+xml</dc:format>
        <dc:type
           rdf:resource="http://purl.org/dc/dcmitype/StillImage" />
        <dc:title></dc:title>
      </cc:Work>
    </rdf:RDF>
  </metadata>
  <defs
     id="defs8" />
  <text
     x="-351.68549"
     y="91.57193"
     id="text20"
     style="font-size:129.22999573px;line-height:125%;letter-spacing:0;word-spacing:0;font-family:Gentium Book Basic">
    <tspan
       x="-351.68549"
       y="91.57193"
       id="tspan22" />
  </text>
  <text
     x="109.44035"
     y="18.313808"
     transform="scale(4.0128205,0.24920128)"
     id="text24"
     style="font-size:46.95375824px;text-anchor:middle;font-family:Arial" />
  <text
     x="229.58453"
     y="11.57193"
     id="text26"
     style="font-size:129.22999573px;line-height:125%;letter-spacing:0;word-spacing:0;font-family:Gentium Book Basic">
    <tspan
       x="229.58453"
       y="11.57193"
       id="tspan28" />
  </text>
  <text
     x="254.28963"
     y="-302.72433"
     transform="scale(4.0128205,0.24920128)"
     id="text30"
     style="font-size:46.95375824px;text-anchor:middle;font-family:Arial" />
  <text
     x="-841.99548"
     y="-169.68805"
     id="text32"
     style="font-size:129.22999573px;line-height:125%;letter-spacing:0;word-spacing:0;font-family:Gentium Book Basic">
    <tspan
       x="-841.99548"
       y="-169.68805"
       id="tspan34" />
  </text>
  <text
     x="-12.749008"
     y="-1030.0707"
     transform="scale(4.0128205,0.24920128)"
     id="text36"
     style="font-size:46.95375824px;text-anchor:middle;font-family:Arial" />
  <text
     x="256.0545"
     y="-386.15805"
     id="text38"
     style="font-size:129.22999573px;line-height:125%;letter-spacing:0;word-spacing:0;font-family:Gentium Book Basic">
    <tspan
       x="256.0545"
       y="-386.15805"
       id="tspan40" />
  </text>
  <text
     x="260.88962"
     y="-1898.7463"
     transform="scale(4.0128205,0.24920128)"
     id="text42"
     style="font-size:46.95375824px;text-anchor:middle;font-family:Arial" />
  <text
     x="837.32452"
     y="-466.15802"
     id="text44"
     style="font-size:129.22999573px;line-height:125%;letter-spacing:0;word-spacing:0;font-family:Gentium Book Basic">
    <tspan
       x="837.32452"
       y="-466.15802"
       id="tspan46" />
  </text>
  <text
     x="405.73886"
     y="-2219.7747"
     transform="scale(4.0128205,0.24920128)"
     id="text48"
     style="font-size:46.95375824px;text-anchor:middle;font-family:Arial" />
  <text
     x="448.20453"
     y="-938.55804"
     id="text50"
     style="font-size:129.22999573px;line-height:125%;letter-spacing:0;word-spacing:0;font-family:Gentium Book Basic">
    <tspan
       x="448.20453"
       y="-938.55804"
       id="tspan52" />
  </text>
  <text
     x="308.76932"
     y="-4115.4248"
     transform="scale(4.0128205,0.24920128)"
     id="text54"
     style="font-size:46.95375824px;text-anchor:middle;font-family:Arial" />
  <text
     x="1029.4646"
     y="-1018.5681"
     id="text56"
     style="font-size:129.22999573px;line-height:125%;letter-spacing:0;word-spacing:0;font-family:Gentium Book Basic">
    <tspan
       x="1029.4646"
       y="-1018.5681"
       id="tspan58" />
  </text>
  <text
     x="453.61862"
     y="-4436.4634"
     transform="scale(4.0128205,0.24920128)"
     id="text60"
     style="font-size:46.95375824px;text-anchor:middle;font-family:Arial" />
  <text
     x="-803.33551"
     y="396.15204"
     id="text62"
     style="font-size:208.33000183px;line-height:125%;letter-spacing:0;word-spacing:0;font-family:Gentium Book Basic">
    <tspan
       x="-803.33551"
       y="396.15204"
       id="tspan64" />
  </text>
  <path
     d="M 26,0 C 11.602648,0 0,11.602648 0,26 l 0,460 c 0,14.39735 11.602648,26 26,26 l 460,0 c 14.39735,0 26,-11.60265 26,-26 L 512,26 C 512,11.602648 500.39735,0 486,0 L 26,0 Z"
     inkscape:connector-curvature="0"
     id="rect2986-9"
     style="fill:#51b0cd;fill-opacity:1;stroke:none" />
  <path
     d="M 267.9375,247.5 26.46875,512 486,512 c 8.58029,0 16.17553,-4.12249 20.90625,-10.5 L 267.9375,247.5 Z"
     inkscape:connector-curvature="0"
     id="path3080"
     style="fill:#bd446f" />
  <path
     d="M 493.71875,1.15625 267.9375,247.4375 506.75,501.6875 C 510.04517,497.3307 512,491.90431 512,486 L 512,26 C 512,14.291694 504.32821,4.4310137 493.71875,1.15625 Z"
     inkscape:connector-curvature="0"
     id="path3086"
     style="fill:#f6bd7b" />
  <path
     d="M 26,0 C 19.843037,0 14.195916,2.1325517 9.75,5.6875 102.96741,108.03114 132.15138,151.12175 249.0625,267.90625 321.72201,189.74459 424.19781,126.71563 512,59.90625 L 512,26 C 512,11.602648 500.39735,0 486,0 L 26,0 Z"
     inkscape:connector-curvature="0"
     id="path3084"
     style="fill:#71c67a" />
  <text
     sodipodi:linespacing="125%"
     x="-100.09924"
     y="149.14371"
     id="text20-2"
     style="font-size:129.22999573px;line-height:125%;font-family:'Gentium Book Basic';letter-spacing:0;word-spacing:0">
    <tspan
       x="-100.09924"
       y="149.14371"
       id="tspan22-9" />
  </text>
  <text
     x="172.13597"
     y="249.33902"
     transform="scale(4.0128205,0.24920128)"
     id="text24-1"
     style="font-size:46.95375824px;font-family:Arial;text-anchor:middle" />
  <text
     sodipodi:linespacing="125%"
     x="481.17078"
     y="69.143707"
     id="text26-2"
     style="font-size:129.22999573px;line-height:125%;font-family:'Gentium Book Basic';letter-spacing:0;word-spacing:0">
    <tspan
       x="481.17078"
       y="69.143707"
       id="tspan28-7" />
  </text>
  <text
     x="316.98523"
     y="-71.69912"
     transform="scale(4.0128205,0.24920128)"
     id="text30-0"
     style="font-size:46.95375824px;font-family:Arial;text-anchor:middle" />
  <text
     sodipodi:linespacing="125%"
     x="-590.40924"
     y="-112.11627"
     id="text32-5"
     style="font-size:129.22999573px;line-height:125%;font-family:'Gentium Book Basic';letter-spacing:0;word-spacing:0">
    <tspan
       x="-590.40924"
       y="-112.11627"
       id="tspan34-9" />
  </text>
  <text
     x="49.946606"
     y="-799.04547"
     transform="scale(4.0128205,0.24920128)"
     id="text36-4"
     style="font-size:46.95375824px;font-family:Arial;text-anchor:middle" />
  <text
     sodipodi:linespacing="125%"
     x="507.64075"
     y="-328.58627"
     id="text38-5"
     style="font-size:129.22999573px;line-height:125%;font-family:'Gentium Book Basic';letter-spacing:0;word-spacing:0">
    <tspan
       x="507.64075"
       y="-328.58627"
       id="tspan40-1" />
  </text>
  <text
     x="323.58521"
     y="-1667.7211"
     transform="scale(4.0128205,0.24920128)"
     id="text42-0"
     style="font-size:46.95375824px;font-family:Arial;text-anchor:middle" />
  <text
     sodipodi:linespacing="125%"
     x="1088.9108"
     y="-408.58624"
     id="text44-6"
     style="font-size:129.22999573px;line-height:125%;font-family:'Gentium Book Basic';letter-spacing:0;word-spacing:0">
    <tspan
       x="1088.9108"
       y="-408.58624"
       id="tspan46-1" />
  </text>
  <text
     x="468.43445"
     y="-1988.7494"
     transform="scale(4.0128205,0.24920128)"
     id="text48-6"
     style="font-size:46.95375824px;font-family:Arial;text-anchor:middle" />
  <text
     sodipodi:linespacing="125%"
     x="699.79077"
     y="-880.98627"
     id="text50-9"
     style="font-size:129.22999573px;line-height:125%;font-family:'Gentium Book Basic';letter-spacing:0;word-spacing:0">
    <tspan
       x="699.79077"
       y="-880.98627"
       id="tspan52-2" />
  </text>
  <text
     x="371.4649"
     y="-3884.3999"
     transform="scale(4.0128205,0.24920128)"
     id="text54-6"
     style="font-size:46.95375824px;font-family:Arial;text-anchor:middle" />
  <text
     sodipodi:linespacing="125%"
     x="1281.0508"
     y="-960.99628"
     id="text56-5"
     style="font-size:129.22999573px;line-height:125%;font-family:'Gentium Book Basic';letter-spacing:0;word-spacing:0">
    <tspan
       x="1281.0508"
       y="-960.99628"
       id="tspan58-1" />
  </text>
  <text
     x="516.31421"
     y="-4205.438"
     transform="scale(4.0128205,0.24920128)"
     id="text60-5"
     style="font-size:46.95375824px;font-family:Arial;text-anchor:middle" />
  <text
     sodipodi:linespacing="125%"
     x="-551.74927"
     y="453.72382"
     id="text62-6"
     style="font-size:208.33000183px;line-height:125%;font-family:'Gentium Book Basic';letter-spacing:0;word-spacing:0">
    <tspan
       x="-551.74927"
       y="453.72382"
       id="tspan64-2" />
  </text>
  <path
     style="fill:#000000;opacity:0.25"
     d="M 67.712891 41 L 63.898438 43.201172 C 61.614848 44.529742 58.969447 47.680201 57.248047 51.025391 L 54.363281 56.601562 L 54.363281 256.86914 L 54.363281 457.13672 L 56.857422 461.83203 C 57.985974 463.94203 59.874307 466.46219 61.445312 468.0332 L 105.41211 512 L 486 512 C 498.92416 512 509.58996 502.64828 511.63867 490.32031 C 492.73927 469.58368 462.54957 436.45978 461.21875 434.99414 L 456.62305 429.9082 L 67.712891 41 z M 102.97461 52.394531 L 107.96289 57.970703 C 110.72403 61.041183 149.50352 103.75831 194.13477 152.89648 L 194.67969 153.44141 C 234.76143 197.57801 268.55516 234.31687 275.14062 240.90234 L 289.5918 255.35352 L 288.47266 256.57617 L 319.62695 290.66211 C 331.27047 303.3936 339.89651 312.56643 345.37305 318.04297 L 512 484.66992 L 512 305.52344 L 454.2832 247.80664 C 448.83796 242.3614 434.58024 234.44369 397.28906 213.97852 C 375.57223 202.06111 356.24685 191.35854 354.34961 190.21094 L 350.92578 188.15625 L 346.65625 192.83789 L 332.73242 178.91406 C 331.88519 178.09253 116.56025 59.367119 107.42578 54.693359 L 102.97461 52.394531 z "
     id="path3536" />
  <path
     d="m 67.71361,41.000002 -3.81464,2.20075 c -2.28359,1.32857 -4.92976,4.4797 -6.65116,7.82489 l -2.88542,5.57523 0,200.268248 0,200.26826 2.49418,4.69494 c 1.37863,2.57756 3.89367,5.76787 5.57524,7.0913 1.68285,1.32344 3.75246,2.23247 4.59713,2.05403 0.84721,-0.17969 45.40663,-48.48331 99.03374,-107.34769 96.55239,-105.98079 97.48951,-107.05163 95.56146,-109.49955 -1.06798,-1.35423 -43.05685,-47.55603 -93.3118,-102.70167 C 118.05996,96.283076 74.84467,48.876832 72.31073,46.086182 l -4.59712,-5.08618 z m 35.2609,11.39499 4.98838,5.57524 c 2.76114,3.07048 41.54033,45.787518 86.17158,94.925688 l 0.0488,0 c 44.63128,49.15098 81.56686,89.23929 82.11245,89.05702 2.1745,-0.72397 57.24698,-62.24085 56.43701,-63.03927 C 331.8855,178.09214 116.5593,59.367312 107.42483,54.693552 l -4.45042,-2.29856 z m 247.95118,135.761828 -20.24691,22.20313 c -11.13182,12.23189 -25.21362,27.64105 -31.25065,34.23388 l -10.95484,11.98186 31.15284,34.08718 c 20.51018,22.42665 31.66137,33.80812 32.71782,33.40249 3.95362,-1.50957 92.84804,-50.93152 97.12643,-53.99174 6.26425,-4.48121 8.16723,-7.5771 8.16723,-13.25341 0,-9.4913 -1.28866,-10.42907 -60.34945,-42.84126 -21.71683,-11.91741 -41.04185,-22.6205 -42.93909,-23.7681 l -3.42338,-2.05403 z m -73.74958,82.99272 c -0.50063,-0.51345 -29.74001,30.72058 -64.99548,69.397 -35.2542,38.67641 -74.55105,81.72908 -87.29642,95.65927 l -23.13233,25.33307 11.24827,-6.06429 c 6.20515,-3.32851 15.1046,-8.20488 19.75785,-10.80812 4.64677,-2.60326 51.84912,-28.44196 104.90242,-57.46403 53.05074,-29.01951 96.56046,-52.86973 96.68629,-52.96472 0.17588,-0.12833 -52.7433,-58.52864 -57.1706,-63.08818 z"
     inkscape:connector-curvature="0"
     id="path3092"
     style="fill:#ffffff" />
</svg>

<?xml version="1.0" encoding="UTF-8" standalone="no"?>
<!-- Created with Inkscape (http://www.inkscape.org/) -->
<svg id="svg2" xmlns:rdf="http://www.w3.org/1999/02/22-rdf-syntax-ns#" xmlns="http://www.w3.org/2000/svg" height="100%" width="100%" version="1.1" xmlns:cc="http://creativecommons.org/ns#" xmlns:dc="http://purl.org/dc/elements/1.1/" viewBox="0 0 512 512">
 <metadata id="metadata10">
  <rdf:RDF>
   <cc:Work rdf:about="">
    <dc:format>image/svg+xml</dc:format>
    <dc:type rdf:resource="http://purl.org/dc/dcmitype/StillImage"/>
    <dc:title/>
   </cc:Work>
  </rdf:RDF>
 </metadata>
 <text id="text20" style="word-spacing:0;letter-spacing:0" font-size="129.23px" line-height="125%" y="91.57193" x="-351.68549" font-family="Gentium Book Basic">
  <tspan id="tspan22" y="91.57193" x="-351.68549"/>
 </text>
 <text id="text24" style="text-anchor:middle" transform="scale(4.0128 .24920)" font-size="46.954px" y="18.313808" x="109.44035" font-family="Arial"/>
 <text id="text26" style="word-spacing:0;letter-spacing:0" font-size="129.23px" line-height="125%" y="11.57193" x="229.58453" font-family="Gentium Book Basic">
  <tspan id="tspan28" y="11.57193" x="229.58453"/>
 </text>
 <text id="text30" style="text-anchor:middle" transform="scale(4.0128 .24920)" font-size="46.954px" y="-302.72433" x="254.28963" font-family="Arial"/>
 <text id="text32" style="word-spacing:0;letter-spacing:0" font-size="129.23px" line-height="125%" y="-169.68805" x="-841.99548" font-family="Gentium Book Basic">
  <tspan id="tspan34" y="-169.68805" x="-841.99548"/>
 </text>
 <text id="text36" style="text-anchor:middle" transform="scale(4.0128 .24920)" font-size="46.954px" y="-1030.0707" x="-12.749008" font-family="Arial"/>
 <text id="text38" style="word-spacing:0;letter-spacing:0" font-size="129.23px" line-height="125%" y="-386.15805" x="256.0545" font-family="Gentium Book Basic">
  <tspan id="tspan40" y="-386.15805" x="256.0545"/>
 </text>
 <text id="text42" style="text-anchor:middle" transform="scale(4.0128 .24920)" font-size="46.954px" y="-1898.7463" x="260.88962" font-family="Arial"/>
 <text id="text44" style="word-spacing:0;letter-spacing:0" font-size="129.23px" line-height="125%" y="-466.15802" x="837.32452" font-family="Gentium Book Basic">
  <tspan id="tspan46" y="-466.15802" x="837.32452"/>
 </text>
 <text id="text48" style="text-anchor:middle" transform="scale(4.0128 .24920)" font-size="46.954px" y="-2219.7747" x="405.73886" font-family="Arial"/>
 <text id="text50" style="word-spacing:0;letter-spacing:0" font-size="129.23px" line-height="125%" y="-938.55804" x="448.20453" font-family="Gentium Book Basic">
  <tspan id="tspan52" y="-938.55804" x="448.20453"/>
 </text>
 <text id="text54" style="text-anchor:middle" transform="scale(4.0128 .24920)" font-size="46.954px" y="-4115.4248" x="308.76932" font-family="Arial"/>
 <text id="text56" style="word-spacing:0;letter-spacing:0" font-size="129.23px" line-height="125%" y="-1018.5681" x="1029.4646" font-family="Gentium Book Basic">
  <tspan id="tspan58" y="-1018.5681" x="1029.4646"/>
 </text>
 <text id="text60" style="text-anchor:middle" transform="scale(4.0128 .24920)" font-size="46.954px" y="-4436.4634" x="453.61862" font-family="Arial"/>
 <text id="text62" style="word-spacing:0;letter-spacing:0" font-size="208.33px" line-height="125%" y="396.15204" x="-803.33551" font-family="Gentium Book Basic">
  <tspan id="tspan64" y="396.15204" x="-803.33551"/>
 </text>
 <path id="rect2986-9" fill="#51b0cd" d="m26 0c-14.397 0-26 11.603-26 26v460c0 14.397 11.603 26 26 26h460c14.397 0 26-11.603 26-26v-460c0-14.397-11.6-26-26-26h-460z"/>
 <path id="path3080" d="m267.94 247.5-241.47 264.5h459.53c8.5803 0 16.176-4.1225 20.906-10.5l-238.97-254z" fill="#bd446f"/>
 <path id="path3086" d="m493.72 1.1562-225.78 246.28 238.81 254.25c3.3-4.36 5.25-9.79 5.25-15.69v-460c0-11.708-7.67-21.569-18.28-24.844z" fill="#f6bd7b"/>
 <path id="path3084" d="m26 0c-6.157 0-11.804 2.1326-16.25 5.6875 93.22 102.34 122.4 145.43 239.31 262.22 72.66-78.17 175.14-141.19 262.94-208v-33.91c0-14.397-11.6-26-26-26h-460z" fill="#71c67a"/>
 <text id="text20-2" font-size="129.23px" style="word-spacing:0;letter-spacing:0" line-height="125%" y="149.14371" x="-100.09924" font-family="&apos;Gentium Book Basic&apos;">
  <tspan id="tspan22-9" y="149.14371" x="-100.09924"/>
 </text>
 <text id="text24-1" style="text-anchor:middle" transform="scale(4.0128 .24920)" font-size="46.954px" y="249.33902" x="172.13597" font-family="Arial"/>
 <text id="text26-2" font-size="129.23px" style="word-spacing:0;letter-spacing:0" line-height="125%" y="69.143707" x="481.17078" font-family="&apos;Gentium Book Basic&apos;">
  <tspan id="tspan28-7" y="69.143707" x="481.17078"/>
 </text>
 <text id="text30-0" style="text-anchor:middle" transform="scale(4.0128 .24920)" font-size="46.954px" y="-71.69912" x="316.98523" font-family="Arial"/>
 <text id="text32-5" font-size="129.23px" style="word-spacing:0;letter-spacing:0" line-height="125%" y="-112.11627" x="-590.40924" font-family="&apos;Gentium Book Basic&apos;">
  <tspan id="tspan34-9" y="-112.11627" x="-590.40924"/>
 </text>
 <text id="text36-4" style="text-anchor:middle" transform="scale(4.0128 .24920)" font-size="46.954px" y="-799.04547" x="49.946606" font-family="Arial"/>
 <text id="text38-5" font-size="129.23px" style="word-spacing:0;letter-spacing:0" line-height="125%" y="-328.58627" x="507.64075" font-family="&apos;Gentium Book Basic&apos;">
  <tspan id="tspan40-1" y="-328.58627" x="507.64075"/>
 </text>
 <text id="text42-0" style="text-anchor:middle" transform="scale(4.0128 .24920)" font-size="46.954px" y="-1667.7211" x="323.58521" font-family="Arial"/>
 <text id="text44-6" font-size="129.23px" style="word-spacing:0;letter-spacing:0" line-height="125%" y="-408.58624" x="1088.9108" font-family="&apos;Gentium Book Basic&apos;">
  <tspan id="tspan46-1" y="-408.58624" x="1088.9108"/>
 </text>
 <text id="text48-6" style="text-anchor:middle" transform="scale(4.0128 .24920)" font-size="46.954px" y="-1988.7494" x="468.43445" font-family="Arial"/>
 <text id="text50-9" font-size="129.23px" style="word-spacing:0;letter-spacing:0" line-height="125%" y="-880.98627" x="699.79077" font-family="&apos;Gentium Book Basic&apos;">
  <tspan id="tspan52-2" y="-880.98627" x="699.79077"/>
 </text>
 <text id="text54-6" style="text-anchor:middle" transform="scale(4.0128 .24920)" font-size="46.954px" y="-3884.3999" x="371.4649" font-family="Arial"/>
 <text id="text56-5" font-size="129.23px" style="word-spacing:0;letter-spacing:0" line-height="125%" y="-960.99628" x="1281.0508" font-family="&apos;Gentium Book Basic&apos;">
  <tspan id="tspan58-1" y="-960.99628" x="1281.0508"/>
 </text>
 <text id="text60-5" style="text-anchor:middle" transform="scale(4.0128 .24920)" font-size="46.954px" y="-4205.438" x="516.31421" font-family="Arial"/>
 <text id="text62-6" font-size="208.33px" style="word-spacing:0;letter-spacing:0" line-height="125%" y="453.72382" x="-551.74927" font-family="&apos;Gentium Book Basic&apos;">
  <tspan id="tspan64-2" y="453.72382" x="-551.74927"/>
 </text>
 <path id="path3536" opacity=".25" d="m67.713 41l-3.815 2.201c-2.283 1.329-4.929 4.479-6.65 7.824l-2.885 5.577v200.27 200.27l2.494 4.69c1.129 2.11 3.017 4.63 4.588 6.2l43.965 43.97h380.59c12.92 0 23.59-9.35 25.64-21.68-18.9-20.74-49.09-53.86-50.42-55.33l-4.6-5.08-388.91-388.91zm35.257 11.395l4.99 5.576c2.76 3.07 41.54 45.789 86.17 94.929l0.55 0.54c40.08 44.14 73.88 80.88 80.46 87.46l14.45 14.45-1.12 1.23 31.16 34.08c11.64 12.73 20.27 21.91 25.74 27.38l166.63 166.63v-179.15l-57.72-57.71c-5.44-5.45-19.7-13.37-56.99-33.83-21.72-11.92-41.04-22.62-42.94-23.77l-3.42-2.05-4.27 4.68-13.93-13.93c-0.84-0.82-216.17-119.54-225.3-124.22l-4.46-2.295z"/>
 <path id="path3092" d="m67.714 41-3.8146 2.2008c-2.2836 1.3286-4.9298 4.4797-6.6512 7.8249l-2.8854 5.5752v200.27 200.27l2.4942 4.6949c1.3786 2.5776 3.8937 5.7679 5.5752 7.0913 1.6828 1.3234 3.7525 2.2325 4.5971 2.054 0.84721-0.17969 45.407-48.483 99.034-107.35 96.552-105.98 97.49-107.05 95.561-109.5-1.068-1.3542-43.057-47.556-93.312-102.7-50.26-55.157-93.475-102.56-96.009-105.35l-4.5971-5.0862zm35.261 11.395 4.9884 5.5752c2.7611 3.0705 41.54 45.788 86.172 94.926h0.0488c44.631 49.151 81.567 89.239 82.112 89.057 2.1745-0.72397 57.247-62.241 56.437-63.039-0.85-0.83-216.18-119.55-225.32-124.23l-4.4504-2.2986zm247.95 135.76-20.247 22.203c-11.132 12.232-25.214 27.641-31.251 34.234l-10.955 11.982 31.153 34.087c20.51 22.427 31.661 33.808 32.718 33.402 3.9536-1.5096 92.848-50.932 97.126-53.992 6.2642-4.4812 8.1672-7.5771 8.1672-13.253 0-9.4913-1.2887-10.429-60.349-42.841-21.717-11.917-41.042-22.62-42.939-23.768l-3.4234-2.054zm-73.75 82.993c-0.50063-0.51345-29.74 30.721-64.995 69.397-35.254 38.676-74.551 81.729-87.296 95.659l-23.132 25.333 11.248-6.0643c6.2052-3.3285 15.105-8.2049 19.758-10.808 4.6468-2.6033 51.849-28.442 104.9-57.464 53.051-29.02 96.56-52.87 96.686-52.965 0.17588-0.12833-52.743-58.529-57.171-63.088z" fill="#fff"/>
</svg>
